usr/share/icons/biglinux-icons-material/24/actions/media-repeat-track-amarok.svg

<svg xmlns="http://www.w3.org/2000/svg" viewBox="0 0 24 24"><path d="M12 4c-4.432 0-8 3.568-8 8h1c0-3.878 3.122-7 7-7s7 3.122 7 7h1c0-4.432-3.568-8-8-8zm0 2c-3.324 0-6 2.676-6 6h3c0-1.662 1.338-3 3-3V6zm0 4c-1.108 0-2 .892-2 2h1c0-.554.446-1 1-1s1 .446 1 1h1c0-1.108-.892-2-2-2zm1 3-2 1.5 2 1.5v-1h5c.554 0 1 .446 1 1h1c0-1.108-.892-2-2-2h-5v-1zm-8 1v1H4v1h1v2H4v1h1v1h1v-1h2v1h1v-1h1v-1H9v-2h1v-1H9v-1H8v1H6v-1H5zm1 2h2v2H6v-2zm5 1c0 1.108.892 2 2 2h5v1l2-1.5-2-1.5v1h-5c-.554 0-1-.446-1-1h-1z" style="fill:currentColor;fill-opacity:1;stroke:none;color:#dedede"/></svg>

<svg xmlns="http://www.w3.org/2000/svg" viewBox="0 0 24 24">
  <defs id="defs3051">
    <style type="text/css" id="current-color-scheme">
      .ColorScheme-Text {
        color:#363636;
      }
      </style>
  </defs>
 <path style="fill:currentColor;fill-opacity:1;stroke:none" 
     d="M 12 4 C 7.568 4 4 7.568 4 12 L 5 12 C 5 8.122 8.122 5 12 5 C 15.878 5 19 8.122 19 12 L 20 12 C 20 7.568 16.432 4 12 4 z M 12 6 C 8.676 6 6 8.676 6 12 L 9 12 C 9 10.338 10.338 9 12 9 L 12 6 z M 12 10 C 10.892 10 10 10.892 10 12 L 11 12 C 11 11.446 11.446 11 12 11 C 12.554 11 13 11.446 13 12 L 14 12 C 14 10.892 13.108 10 12 10 z M 13 13 L 11 14.5 L 13 16 L 13 15 L 18 15 C 18.554 15 19 15.446 19 16 L 20 16 C 20 14.89199 19.10801 14 18 14 L 13 14 L 13 13 z M 5 14 L 5 15 L 4 15 L 4 16 L 5 16 L 5 18 L 4 18 L 4 19 L 5 19 L 5 20 L 6 20 L 6 19 L 8 19 L 8 20 L 9 20 L 9 19 L 10 19 L 10 18 L 9 18 L 9 16 L 10 16 L 10 15 L 9 15 L 9 14 L 8 14 L 8 15 L 6 15 L 6 14 L 5 14 z M 6 16 L 8 16 L 8 18 L 6 18 L 6 16 z M 11 17 C 11 18.10801 11.89199 19 13 19 L 18 19 L 18 20 L 20 18.5 L 18 17 L 18 18 L 13 18 C 12.446 18 12 17.554 12 17 L 11 17 z "
     class="ColorScheme-Text"
     />
</svg>
